X:663
T:
N:
S:Efter fanjunkaren Lindbohm, Sanda m.fl.
R:kadrilj
O:Gotland, Sanda
M:2/4
L:1/16
K:F
AB|ccc2 A2AA|FFF2 EEE2|ccc2 BBB2|GGG2 FFF2|ccc2 AAA2|fff2 ddd2|gece fdc=B|c4
z2::CD|E2F2G2A2|B2B2 B4|B2dc B2A2|G2G2G2 z2|ccc2 AAA2|fff2 ddd2|cAFA
GBEG|F2F2F2::F2|d2d2 A,4|e2e2 A,4|f2f2 gfed|a2a2 gfef|d2d2 A,4|e2e2 A,4|f2ga
A2=B^c|d2d2d2::c2|f2f2 f2ef|g2g2 g2fg|a2a2 bagf|efag fedc|d2d2 A,4|e2e2
A,4|f2f2 fedc|a2a2 agfe|d2d2 A,4|e2e2 A,4|f2ga A2=B^c|d2d2d2:|

